X: 2
T:Ragtime Annie
% Nottingham Music Database
S:via PR
M:2/4
L:1/4
K:D
A/2|"D"D/4F/4A/4F/4 B/2A/4F/4|D/4F/4A/4F/4 B/2A/4F/4|"D"D/4F/4A/4F/4 B/2A/4F/4\
|"A7"A/4c/2A/4 c/2B/2|
A/4B/4c/4A/4 B/4c/4B/4A/4|"A7"A/4B/4c/4A/4 B/4c/4B/4A/4|\
"A7"A/4B/4c/4d/4 e/4g/4f/4e/4|"D"d3/2:|
f/4g/4|"D"a/2a/4b/4 a/4f/4d/4B/4|A/2A/2 A/2f/4g/4|"D"a/2a/2 g/2f/2|\
"G"B3/2e/4f/4|"Em"g/4f/4e/4f/4 g/4f/4e/4d/4|
"A7"c/2A/2 c/2c/4A/4|"Em"B/2B/2 "A7"A/2G/2|"D"F3/2"A7"f/4g/4|\
"D"a/2a/4b/4 a/4f/4d/4B/4|A/2A/2 A/2f/4g/4|"D"a/2a/2 g/2f/2|
"G"B3/2g/4a/4|"G"b/2b/2 b/4a/4f/4g/4|"D"a/2a/4b/4 a/4f/4d/4B/4|\
"A7"A/4B/4c/4d/4 e/4g/4f/4e/4|"D"d3/2
|:G/4A/4|"G"B/2B/2 B/4G/4A/4B/4|"Am"c/4B/4c/4d/4 c/2d/4e/4|"D7"f/2
P:3
f/2 f/4d/4e/4f/4|"G"g/4f/4g/4a/4 g/2G/4A/4|"Em"B/2B/2 B/4G/4A/4B/4|\
"Am"c/4B/4c/4d/4 c/2d/4e/4|"D7"f/2f/2 f/4d/4e/4f/4| [1"G"g/4f/4g/4a/4 g:|[2"G"g2||


